X:1
T:,,Фокс-Тротт.''
T:,,Фокс-Тротт.''
T:,,Мисс - Эвелин.''
T:Муз. М. НИКОЛАЕВСКАГО.
T:(Шимми Ту-Степ.)
T:C. 46 A.
T:C. 46 A.
T:C. 46 A.
T:C. 46 A.
C:Муз. М. НИКОЛАЕВСКАГО.
Z:C. 46 A.
%%score { ( 1 2 ) | 3 }
L:1/8
Q:1/4=90
M:2/4
K:Ab
V:1 treble nm="Piano" snm="Pno."
V:2 treble 
V:3 bass 
V:1
"^Allegretto. Grazioso." z !>!c3 |"^ten." c4 | z !>!d3 |"^ten." d4 | z !>!e3 | (e3 d) | z (c3 | %7
 c4) | z !>!c3 |"^ten." c4 | z !>!d3 |"^ten." d4 | z !>!e3 | e!<(! z z2 ||1 A!<)!A!>(!GF | %15
 EDCB,!>)! :|2!<(! AAB=B | c2!<)! !>![=EGBc]2 |:!mf! z ([Ac]2 [G=B]) | [Ac][G=B][Ac][ca] | %20
 z (!>![G=B]2 [^F^A] | [G=B]4) | z (!>![G_B]2 [Ac] | [Bd][Ac] [GB]2) | z (!>![FA]2 [GB] | %25
 [Ac][GB] [FA]2) | z (!>![Ac]2 [G=B]) | ([Ac]/[G=B]/[Ac]/[GB]/) [Ac][ca] | z (!>![G=B]2 [^F^A] | %29
 [G=B]4) | z (!>!=e2 f | g)!<(!c=d=e |1 f=e!<)!_e=d |!>(! _dc=Bc!>)! :|2 %34
 [Ff]!<(![=E=e][_E_e][=D=d]!<)! | !>![_D_d]2!ff! !>![EGB_de]2 ||[K:Ab] z !>![cc']3 |"^ten." c'4 | %38
 z !>![dd']3 |"^ten." [dd']4 | z !>![ee']3 | (e'3 d') | z !>![cc']3- | [cc']4 | z !>![cc']3 | %45
"^ten." c'4 | z !>![dd']3 |"^ten." [dd']4 | z !>![ee']3 | [ege'][Ee]!<(![Ff][Gg] | %50
 [Aa][Bb][cc'][ee']!<)! | !>![aa']2 !^![ac'e'a']2!fine! ||[K:Eb]!p!"^legato" z (!>![G,G]3 | %53
 [G,B,EG])[^F,^F][G,G][A,A] | z !>![B,DFAB]2 [=A,=A] |"^ten." [B,DF_AB]4 | z (!>![A,B,DFA]2 [G,G] | %57
 [A,B,DFA])[G,G][A,A][=A,=A] | z !>![B,EGB]2 [=A,=A] | ([B,EGB]2 [Ee]2) | %60
 z (!>![G,B,EG]2 [^F,^F]) | [G,B,EG][^F,^F][G,G][A,A] | z !>![B,DFAB]2 [=A,=A] |"^ten." [B,DFB]4 | %64
 z (!>![F=Acf]2 [=E=e]) |!<(! [_E_e][Dd][Cc][Ff]!<)! | z!>(! !>![Dd]2 !tenuto![Cc]- | %67
 [Cc] !tenuto![_C_c]2 !tenuto![B,B]!>)! |!f! z !>![GBeg]2 [^F^f] | [GBeg][^F^f][Gg][Aa] | %70
 z !>![Bdfab]2 [=A=a] | !>![Bdf_ab]4 | z !>![ABdfa]2 [Gg] | [ABdfa][Gg][Aa][=A=a] | %74
 z !>![Begb]2 [=A=a] | (!>![Begb]2 [ee']2) | z [__B_ce_g_c']2 [_d_d'] | [ee'][_d_d'] [_c_c']2 | %78
 z [Begb]2 [^c^c'] | [ee'][cc'][Bb]!>!c | !>!B!<(!!>!G!>!E!>!C | !>!B,!>!C!>!E!>!G | %82
 !>!B2!<)! !>![B,DFAB]2 | !>!E2 [egb_d'e']2 ||[K:Ab]!mf! z !>!c3 |"^ten." c4 | z !>!d3 | %87
"^ten." d4 | z !>!e3 | (e3 d) | z (!>!c3 |"^ten." c4) | z !>!c3 |"^ten." c4 | z !>!d3 |"^ten." d4 | %96
 z !>!e3 | [Ge]!<(!EFG | [CA][EB][Ac][Be] | [ca]2!<)! [Acea]2 ||!mp! z !>![FAB]2!<(! [FA=B] | %101
 [FAc][FA^c]!<)![FA=d][FA_B] | z !>![GB=c]2 [GB=d] | [GBe][GBc] z2 | z!<(! !>![AB=d]2 [ABe] | %105
 [ABf][AB=d][ABe][ABf]!<)! | g4- | g4 |!f! z !>![Bcg]2 [Bca] | [Bcg][Bca][Bcg][Bc] | %110
 z !>![Acg]2 [Acf] | [A=B][Ac] !tenuto![Acf]2 |!ff! z !>![=Acef]2 [Aceg] | [=Acef]c=de | %114
 !>![_AB=df]!<(!(b/B/) z (b/B/) | z (b/B/) z (b/B/)!<)! |!ff! z !>![B=dfab]2!<(! [=Bfa=b] | %117
 [cfac'][^c^c'][=d=d'][Bfab]!<)! | z !>![cgbc']2 [=dgb=d'] | [egbe'][cgbc'] !>![=dgb=d']2 | %120
 z !>![AB=d]2 [ABe] | [ABf]!tenuto![AB=d]!<(!!tenuto![ABe]!tenuto![ABf] | !^!g4- | g4!<)! | %124
!ff! z !>![Bcg]2 [Bca] | [Bcg]!<(![cc'][=B=b][_B_b] | z!<)! !>![Aca]2 [Gcg] | %127
 [Fcf][Gcg][Aca][=Ac=a] | z (!>!b2 g) | z (!>![Bdb]2 [Aca]) | z !>![=Aceg]2 !>![_AB=d] | %131
 z !>![AB] !>![GBe]2!D.C.! |] %132
V:2
 x (E2 =D) | E/=D/E/D/ .E.=E | x (F2 =E) | (F3 ^F) | x (G2 ^F) | (G/^F/G/F/ G)B | z (A2 G | A)AGF | %8
 x (E2 =D) | E/=D/E/D/ .E.=E | x (F2 =E) | (F3 ^F) | x (G2 ^F) | GEFG ||1 x4 | x4 :|2 x4 | x4 |: %18
 x4 | x4 | x4 | x4 | x4 | x4 | x4 | x4 | x4 | x4 | x4 | x4 | x [GBc]3 | x4 |1 x4 | x4 :|2 x4 | %35
 x4 ||[K:Ab] x e2 =d | (e/=d/e/d/ e)=e | x (f2 =e) | f3 ^f | x (g2 ^f) | (g/^f/g/f/ g)[db] | %42
 x a2 g | aagf | x e2 =d | (e/=d/e/d/ e)=e | x (f2 =e) | f3 ^f | x (g2 ^f) | x4 | x4 | x4 || %52
[K:Eb] x [B,E]2 [^F,^F] | x4 | x4 | x4 | x4 | x4 | x4 | x4 | x4 | x4 | x4 | x4 | x4 | x4 | x4 | %67
 x4 | x4 | x4 | x4 | x4 | x4 | x4 | x4 | x4 | x4 | x4 | x4 | x4 | x4 | x4 | x4 | x4 || %84
[K:Ab] x (E2 =D) | E/=D/E/D/ .E.=E | x (F2 =E) | (F3 ^F) | x (G2 ^F) | (G/^F/G/F/ G)B | x (A2 G | %91
 A)AGF | x (E2 =D) | E/=D/E/D/ .E.=E | x (F2 =E) | F3 ^F | x (G2 ^F) | x4 | x4 | x4 || x4 | x4 | %102
 x4 | x4 | x4 | x4 | z !tenuto![GBe]2 !tenuto![GB=d] | z !tenuto![GBd]2 !tenuto![GBc] | x4 | x4 | %110
 x4 | x4 | x4 | x4 | x4 | x4 | x4 | x4 | x4 | x4 | x4 | x4 | z [GBe]3- | [GBe]2 [GBe]2 | x4 | x4 | %126
 x4 | x4 | z [Bd]3 | x4 | x4 | x4 |] %132
V:3
 !tenuto!A,,[A,C] C,[A,C] | A,,[A,C] C,[A,C] | D,[B,D] F,[B,D] | D,[B,D] F,[B,D] | %4
 B,,[G,D] F,[G,D] | E,,[G,D] F,[G,D] | A,,[A,C] C,[A,C] | E,[A,C] C,[A,C] | A,,[A,C] C,[A,C] | %9
 E,[A,C] C,[A,C] | D,[B,D] F,[B,D] | D,[B,D] F,[B,D] | B,,[G,D] F,[G,D] | %13
 E,,[E,,E,][F,,F,][G,,G,] ||1 [A,,A,][A,,A,][G,,G,][F,,F,] | [E,,E,][D,,D,][C,,C,][B,,,B,,] :|2 %16
 [A,,A,][A,,A,][B,,B,][=B,,=B,] | [C,C]2 !>![C,,C,]2 |: !tenuto!F,,[F,A,C] !tenuto!G,,[A,C] | %19
 !tenuto!A,,[A,C] !tenuto!C,[A,C] | !tenuto!=D,[F,G,=B,] !tenuto!G,,[=F,G,B,] | %21
 !tenuto!=A,,[F,G,=B,] !tenuto!=B,,[F,G,B,] | !>!C, !>![G,_B,C=E]2 [G,B,CE] | %23
 z [C,,C,][=D,,=D,][=E,,=E,] | !tenuto![F,,F,][F,A,C] !tenuto!G,,[A,C] | %25
 !tenuto!A,,[A,C] !tenuto!C,[A,C] | !tenuto!F,[A,C] !tenuto!C,[F,A,C] | %27
 !tenuto!A,,[F,A,C] !tenuto!F,,[F,A,C] | !tenuto!G,,[F,G,=B,] !tenuto!=A,,[=F,G,B,] | %29
 !tenuto!=B,,[F,G,=B,] =D,[F,G,B,] | !>!C, !>![G,_B,C]2 [G,B,C] | z [C,,C,]=D,=E, |1 F,=E,_E,=D, | %33
 _D,C,=B,,C, :|2 [F,,F,]!<(![=E,,=E,][_E,,_E,][=D,,=D,]!<)! | !>![_E,,_E,]2 !>![E,,,E,,]2 || %36
[K:Ab] [A,,,A,,][A,CE] !>!G,[A,CE] | !>!F,[A,CE] !>!E,[A,CE] | !>!D,[A,CE] !>!C,[A,CE] | %39
 !>!B,,[F,B,D] !>!A,,[F,B,D] | !>!G,,[E,G,D] !>!E,,[E,G,D] | !>!F,,[E,G,D] !>!G,,[E,G,D] | %42
 !>!A,,[E,A,C] C,[E,A,C] | E,[A,C] C,[E,A,C] | [A,,,A,,][A,CE] !>!G,[A,CE] | %45
 !>!F,[A,CE] !>!E,[A,CE] | !>!D,[A,CE] !>!C,[A,CE] | !>!B,,[F,B,D] !>!A,,[F,B,D] | %48
 !>!G,,[E,G,D] !>!F,,[E,G,D] | E,,[D,D][C,C][B,,B,] | [A,,A,]E,C,B,, | %51
 !>!A,,2"^Fine." !^![A,,,A,,]2 ||[K:Eb]"_staccato""^subito" E,,B,, B,,,B,, | E,,B,, B,,,B,, | %54
 F,,B,, B,,,B,, | F,,B,, B,,,B,, | F,,B,, B,,,B,, | [F,,A,,]B,, B,,,B,, | [E,,G,,]B,, B,,,B,, | %59
 [E,,G,,]B,, B,,,B,, | [E,,G,,]B,, B,,,B,, | [E,,G,,]B,, B,,,B,, | F,,B,, B,,,B,, | %63
 F,,B,, B,,,B,, | F,,"^cresc." !>![C,E,F,]2 [^F,,^F,] | [G,,G,][^G,,^G,][=A,,=A,][=F,,=F,] | %66
 z !>![D,,D,]2 !tenuto![C,,C,]- | [C,,C,] !tenuto![_C,,_C,]2 !tenuto![B,,,B,,] | %68
 E,[G,B,] B,,[G,B,] | E,[G,B,] B,,[G,B,] | F,[A,B,] B,,[_A,B,] | F,[A,B,] B,,[A,B,] | %72
 F,[A,B,D] B,,[A,B,D] | F,[A,B,D] B,,[A,B,D] | E,[G,B,E] B,,[G,B,E] | E,[B,EG] G,[B,EG] | %76
 [E,_G,__B,]_C _C,C | [E,_G,__B,]_C _C,C | [E,=G,]B, B,,B, | [E,G,]B, B,,!>!C | %80
 !>!B,!>!G,!>!E,!>!C, | !>!B,,!>!C,!>!E,!>!G, | !>!B,2 !>![B,,,B,,]2 | !>![E,,E,]2 !>![E,,,E,,]2 || %84
[K:Ab] !tenuto!A,,[A,C] C,[A,C] | A,,[A,C] C,[A,C] | D,[B,D] F,[B,D] | D,[B,D] F,[B,D] | %88
 B,,[G,D] F,[G,D] | E,,[G,D] F,[G,D] | A,,[A,C] C,[A,C] | E,[A,C] C,[A,C] | A,,[A,C] C,[A,C] | %93
 E,[A,C] C,[A,C] | D,[B,D] F,[B,D] | D,[B,D] F,[B,D] | B,, [G,D]2 [G,D] | E,, [E,G,D]2 [E,G,D] | %98
 [A,,A,]E,C,B,, | A,,2 [A,,,A,,]2 || F,B, B,,B, | [F,A,]B, B,,B, | E,B, B,,B, | [E,G,]B, B,,B, | %104
 F,[A,B,] B,,[A,B,] | F,[A,B,=D] B,,[A,B,D] | !tenuto![E,E]2 !tenuto![=D,=D]2 | %107
 !tenuto![D,D]2 !tenuto![C,C]2 | =E,[B,C] C,[B,C] | z!<(! [C,,C,][=D,,=D,][=E,,=E,]!<)! | %110
 !>![F,,F,][F,A,C] !>!G,,[A,C] | !>!A,,[F,A,C] !>!C,[A,C] | F,[=A,CE] C,[A,CE] | %113
"^cresc." F,[E,E][=D,=D][C,C] | !>![B,,B,]2 !>![A,,A,]2 | !>![G,,G,]2 !>![F,,F,]2 | %116
 F,[A,B,=D] B,,[A,B,D] | F,[B,=DA] B,,[B,DA] | E,[B,EG] G,[B,EG] | B,[EG] G,[B,EG] | %120
"^cresc." F,[A,B,] B,,[A,B,=D] | F,!tenuto![A,A]!tenuto![G,G]!tenuto![F,F] | %122
 !tenuto![E,E]!tenuto![=D,=D]!tenuto![^C,^C]!tenuto![=C,=C] | %123
 !tenuto![_C,_C]!tenuto![B,,B,]!tenuto![=A,,=A,]!tenuto![B,,B,] | !>!=E,[B,CG] C,[B,C] | %125
 z !tenuto![C,,C,]!tenuto![=D,,=D,]!tenuto![=E,,=E,] | !>![F,,F,] !>![A,CF]2 (G, | A,G,F,)[CF] | %128
 =E, !>![B,DG]2 [B,DG] | F, (!>![B,DG]2 [A,CF]) | z !>![F,,F,]2 !>!B,, | %131
"^D.C. al Fine." z !>!B,, !>![E,,E,]2 |] %132

